Resources/github.svg

<?xml version="1.0" encoding="UTF-8"?>
<svg width="254px" height="251px" viewBox="0 0 254 251" version="1.1" xmlns="http://www.w3.org/2000/svg" xmlns:xlink="http://www.w3.org/1999/xlink">
    <!-- Generator: Sketch 51 (57462) - http://www.bohemiancoding.com/sketch -->
    <title>Fill 34</title>
    <desc>Created with Sketch.</desc>
    <defs></defs>
    <g id="Page-2" stroke="none" stroke-width="1" fill="none" fill-rule="evenodd">
        <g id="Desktop-HD" transform="translate(-413.000000, -1143.000000)" fill="#444444" stroke="#000000">
            <g id="link" transform="translate(320.000000, 1066.000000)">
                <g id="Github" transform="translate(94.000000, 78.000000)">
                    <path d="M0.354210329,127.660944 C0.354210329,184.051641 36.4074833,231.897568 86.421175,248.779673 C92.7131947,249.952484 95.0097819,246.011199 95.0097819,242.628395 C95.0097819,239.596637 94.8996715,231.570457 94.8367513,220.919413 C59.8295267,228.634439 52.4442685,203.805937 52.4442685,203.805937 C46.7263956,189.06202 38.4759848,185.136691 38.4759848,185.136691 C27.048104,177.214229 39.3411375,177.373795 39.3411375,177.373795 C51.964502,178.275344 58.6104478,190.530029 58.6104478,190.530029 C69.841703,210.036998 88.0649651,204.404311 95.2378676,201.133203 C96.3782962,192.88363 99.6344164,187.258922 103.228733,184.067598 C75.2843001,180.84436 45.9084331,169.898118 45.9084331,120.983098 C45.9084331,107.04499 50.8083434,95.6519625 58.8621286,86.7242333 C57.5643996,83.4930176 53.246501,70.520285 60.0890725,52.9440673 C60.0890725,52.9440673 70.6596656,49.5133939 94.6951809,66.0284963 C104.738817,63.1961961 115.498171,61.7840352 126.20247,61.728187 C136.891038,61.7840352 147.658257,63.1961961 157.709758,66.0284963 C181.729544,49.5133939 192.276542,52.9440673 192.276542,52.9440673 C199.142708,70.520285 194.82481,83.4930176 193.527081,86.7242333 C201.596596,95.6519625 206.465046,107.04499 206.465046,120.983098 C206.465046,170.017793 177.041989,180.812447 149.011041,183.971858 C153.525565,187.913143 157.552458,195.699974 157.552458,207.611591 C157.552458,224.677197 157.395157,238.439782 157.395157,242.628395 C157.395157,246.043112 159.660284,250.016311 166.046684,248.763716 C216.013186,231.849698 252.034999,184.035684 252.034999,127.660944 C252.034999,57.1486369 195.689962,0 126.18674,0 C56.6992469,0 0.354210329,57.1486369 0.354210329,127.660944 Z" id="Fill-34"></path>
                </g>
            </g>
        </g>
    </g>
</svg>

<?xml version="1.0" encoding="UTF-8"?>
<svg version="1.1" viewBox="0 0 254 251" xmlns="http://www.w3.org/2000/svg">
<title>Fill 34</title>
<desc>Created with Sketch.</desc>
<g fill="none" fill-rule="evenodd">
<g transform="translate(-413 -1143)" fill="#444" stroke="#000">
<g transform="translate(320 1066)">
<g transform="translate(94 78)">
<path d="m0.35421 127.66c0 56.391 36.053 104.24 86.067 121.12 6.292 1.1728 8.5886-2.7685 8.5886-6.1513 0-3.0318-0.11011-11.058-0.17303-21.709-35.007 7.715-42.392-17.113-42.392-17.113-5.7179-14.744-13.968-18.669-13.968-18.669-11.428-7.9225 0.86515-7.7629 0.86515-7.7629 12.623 0.90155 19.269 13.156 19.269 13.156 11.231 19.507 29.455 13.874 36.627 10.603 1.1404-8.2496 4.3965-13.874 7.9909-17.066-27.944-3.2232-57.32-14.169-57.32-63.084 0-13.938 4.8999-25.331 12.954-34.259-1.2977-3.2312-5.6156-16.204 1.2269-33.78 0 0 10.571-3.4307 34.606 13.084 10.044-2.8323 20.803-4.2445 31.507-4.3003 10.689 0.055848 21.456 1.468 31.507 4.3003 24.02-16.515 34.567-13.084 34.567-13.084 6.8662 17.576 2.5483 30.549 1.2505 33.78 8.0695 8.9277 12.938 20.321 12.938 34.259 0 49.035-29.423 59.829-57.454 62.989 4.5145 3.9413 8.5414 11.728 8.5414 23.64 0 17.066-0.1573 30.828-0.1573 35.017 0 3.4147 2.2651 7.3879 8.6515 6.1353 49.967-16.914 85.988-64.728 85.988-121.1 0-70.512-56.345-127.66-125.85-127.66-69.487 0-125.83 57.149-125.83 127.66z"/>
</g>
</g>
</g>
</g>
</svg>
